images/logo.svg

<svg width="100" height="28" viewBox="0 0 100 28" fill="none" xmlns="http://www.w3.org/2000/svg">
<path fill-rule="evenodd" clip-rule="evenodd" d="M21.2928 0H2.82511C1.26809 0 0 1.29923 0 2.89449V21.8157C0 23.4114 1.26809 24.7102 2.82511 24.7102H18.4537L17.7234 22.126L19.4874 23.7924L21.1548 25.3595L24.1319 28V2.89449C24.1179 1.29923 22.8503 0 21.2928 0V0ZM15.973 18.2856C15.973 18.2856 15.4771 17.6783 15.0633 17.1559C16.8687 16.6336 17.558 15.49 17.558 15.49C16.9927 15.871 16.4553 16.1394 15.973 16.3227C15.2837 16.6197 14.6224 16.8031 13.9746 16.9301C12.6515 17.1841 11.4389 17.1139 10.4052 16.9157C9.61948 16.7606 8.94419 16.549 8.37936 16.3089C8.06245 16.1819 7.71758 16.0262 7.37318 15.8285C7.3317 15.8003 7.29021 15.7865 7.24921 15.7578C7.22172 15.744 7.20773 15.7297 7.19375 15.7297C6.94582 15.5888 6.80787 15.49 6.80787 15.49C6.80787 15.49 7.46965 16.6054 9.22009 17.1421C8.80624 17.6783 8.29639 18.2995 8.29639 18.2995C5.25085 18.2006 4.09321 16.1675 4.09321 16.1675C4.09321 11.663 6.07759 8.00593 6.07759 8.00593C8.06197 6.49518 9.93638 6.53768 9.93638 6.53768L10.0743 6.70719C7.59361 7.42723 6.46347 8.54262 6.46347 8.54262C6.46347 8.54262 6.76687 8.37312 7.27671 8.14727C8.75125 7.48357 9.92287 7.31406 10.4052 7.25772C10.4877 7.24339 10.5567 7.22955 10.6396 7.22955C11.4799 7.11638 12.4311 7.08821 13.4233 7.20138C14.7329 7.35656 16.1384 7.75191 17.5715 8.54262C17.5715 8.54262 16.4828 7.48357 14.14 6.76353L14.333 6.53768C14.333 6.53768 16.2209 6.49518 18.1918 8.00593C18.1918 8.00593 20.1762 11.6635 20.1762 16.1675C20.1762 16.1532 19.0185 18.1868 15.973 18.2856ZM36.7834 6.04349H32.2079V11.3101L35.2539 14.1201V9.00865H36.8799C37.9136 9.00865 38.4234 9.51717 38.4234 10.3361V14.2471C38.4234 15.066 37.941 15.617 36.8799 15.617H32.1939V18.596H36.7694C39.2226 18.6103 41.5244 17.3536 41.5244 14.4729V10.2654C41.5379 7.32839 39.2366 6.04349 36.7834 6.04349ZM60.7634 14.4729V10.1522C60.7634 8.59896 63.4925 8.24611 64.3192 9.79936L66.8414 8.75463C65.8488 6.52335 64.0433 5.87398 62.5413 5.87398C60.0881 5.87398 57.6628 7.32839 57.6628 10.1522V14.4729C57.6628 17.3254 60.0881 18.7517 62.4863 18.7517C64.0298 18.7517 65.8767 17.9748 66.8964 15.9417L64.1953 14.6706C63.5335 16.4077 60.7634 15.9842 60.7634 14.4729ZM52.4255 10.7452C51.4748 10.5337 50.8405 10.1809 50.7995 9.57351C50.8545 8.1191 53.0458 8.06276 54.3274 9.46034L56.3533 7.86508C55.0856 6.28367 53.6521 5.85965 52.1776 5.85965C49.9313 5.85965 47.7535 7.15888 47.7535 9.61601C47.7535 12.002 49.5454 13.2869 51.5158 13.5977C52.522 13.7391 53.6386 14.1483 53.6106 14.8545C53.5281 16.1957 50.827 16.125 49.6004 14.6004L47.6435 16.4784C48.7871 17.9891 50.3446 18.7517 51.8052 18.7517C54.052 18.7517 56.5462 17.4243 56.6427 14.9958C56.7806 11.9313 54.6033 11.1549 52.4255 10.7452ZM43.1919 18.5822H46.2789V6.04349H43.1919V18.5822ZM95.2455 6.04349H90.6699V11.3101L93.7155 14.1201V9.00865H95.342C96.3756 9.00865 96.8855 9.51717 96.8855 10.3361V14.2471C96.8855 15.066 96.4031 15.617 95.342 15.617H90.6559V18.596H95.2455C97.6982 18.6103 100 17.3536 100 14.4729V10.2654C100 7.32839 97.6982 6.04349 95.2455 6.04349ZM72.7951 5.87398C70.2589 5.87398 67.7372 7.28589 67.7372 10.1809V14.4591C67.7372 17.3254 70.2729 18.7655 72.8226 18.7655C75.3583 18.7655 77.8805 17.3254 77.8805 14.4591V10.1809C77.8805 7.30022 75.3308 5.87398 72.7951 5.87398ZM74.7794 14.4591C74.7794 15.3625 73.7873 15.8285 72.8086 15.8285C71.8164 15.8285 70.8242 15.3912 70.8242 14.4591V10.1809C70.8242 9.26266 71.7889 8.76847 72.7536 8.76847C73.7598 8.76847 74.7794 9.20633 74.7794 10.1809V14.4591ZM88.961 10.1809C88.892 7.24388 86.9351 6.05733 84.4129 6.05733H79.5204V18.596H82.649V14.6143H83.2003L86.0389 18.596H89.8982L86.5627 14.2896C88.0373 13.8092 88.961 12.4962 88.961 10.1804V10.1809ZM84.4679 11.875H82.649V9.00865H84.4679C86.4113 9.00865 86.4113 11.875 84.4679 11.875Z" fill="white"/>
</svg>

<svg width="100" height="28" fill="none" xmlns="http://www.w3.org/2000/svg"><path fill-rule="evenodd" clip-rule="evenodd" d="M21.293 0H2.825C1.268 0 0 1.3 0 2.894v18.922c0 1.595 1.268 2.894 2.825 2.894h15.629l-.73-2.584 1.763 1.666 1.668 1.567L24.132 28V2.894C24.118 1.3 22.85 0 21.292 0zm-5.32 18.286s-.496-.608-.91-1.13c1.806-.522 2.495-1.666 2.495-1.666a7.821 7.821 0 01-1.585.833c-.69.297-1.35.48-1.998.607a9.419 9.419 0 01-3.57-.014 10.277 10.277 0 01-2.026-.607 7.975 7.975 0 01-1.006-.48c-.041-.029-.083-.043-.124-.071-.027-.014-.041-.028-.055-.028-.248-.141-.386-.24-.386-.24s.662 1.115 2.412 1.652c-.414.536-.924 1.157-.924 1.157-3.045-.098-4.203-2.131-4.203-2.131 0-4.505 1.985-8.162 1.985-8.162 1.984-1.51 3.858-1.468 3.858-1.468l.138.17c-2.48.72-3.61 1.835-3.61 1.835s.303-.17.813-.396c1.474-.663 2.646-.833 3.128-.89.083-.014.152-.027.235-.027.84-.114 1.791-.142 2.783-.029 1.31.156 2.715.55 4.149 1.342 0 0-1.09-1.06-3.432-1.78l.193-.225s1.888-.043 3.859 1.468c0 0 1.984 3.658 1.984 8.162 0-.015-1.157 2.019-4.203 2.118zm20.81-12.243h-4.575v5.267l3.046 2.81V9.01h1.626c1.034 0 1.543.508 1.543 1.327v3.911c0 .819-.482 1.37-1.543 1.37h-4.686v2.979h4.575c2.454.014 4.755-1.242 4.755-4.123v-4.208c.014-2.937-2.287-4.222-4.74-4.222zm23.98 8.43v-4.32c0-1.554 2.73-1.907 3.556-.354l2.522-1.044c-.992-2.232-2.798-2.881-4.3-2.881-2.453 0-4.878 1.454-4.878 4.278v4.32c0 2.853 2.425 4.28 4.823 4.28 1.544 0 3.39-.777 4.41-2.81l-2.7-1.271c-.663 1.737-3.433 1.313-3.433-.198zm-8.337-3.728c-.951-.211-1.586-.564-1.627-1.171.056-1.455 2.247-1.511 3.528-.114l2.026-1.595c-1.267-1.581-2.7-2.005-4.175-2.005-2.247 0-4.424 1.299-4.424 3.756 0 2.386 1.791 3.67 3.762 3.982 1.006.141 2.123.55 2.095 1.256-.083 1.342-2.784 1.271-4.01-.254l-1.957 1.878c1.143 1.511 2.7 2.274 4.161 2.274 2.247 0 4.741-1.328 4.838-3.756.138-3.065-2.04-3.841-4.218-4.25zm-9.234 7.837h3.087V6.043h-3.087v12.54zM95.246 6.043H90.67v5.267l3.046 2.81V9.01h1.626c1.034 0 1.543.508 1.543 1.327v3.911c0 .819-.482 1.37-1.543 1.37h-4.686v2.979h4.59c2.452.014 4.754-1.242 4.754-4.123v-4.208c0-2.937-2.302-4.222-4.754-4.222zm-22.45-.169c-2.537 0-5.059 1.412-5.059 4.307v4.278c0 2.866 2.536 4.306 5.086 4.306 2.535 0 5.058-1.44 5.058-4.306v-4.278c0-2.88-2.55-4.307-5.086-4.307zm1.983 8.585c0 .904-.992 1.37-1.97 1.37-.993 0-1.985-.438-1.985-1.37v-4.278c0-.918.965-1.413 1.93-1.413 1.006 0 2.025.438 2.025 1.413v4.278zm14.182-4.278c-.069-2.937-2.026-4.124-4.548-4.124H79.52v12.539h3.129v-3.982h.551l2.839 3.982h3.86l-3.336-4.306c1.474-.48 2.398-1.794 2.398-4.11zm-4.493 1.694h-1.819V9.009h1.819c1.943 0 1.943 2.866 0 2.866z" fill="#fff"/></svg>
